X: 41796
T: Vergers
R: reel
M: 4/4
K: Gdorian
|D2GF G2 GA|BA G2 A2 z2|DGAB A2 z2|c2 BA B2 A2|G2 D2 G2 GA|BA G2 A2 z2|
A2 GA B2 E^F|G2 A2 G4|z2 c BA B2 A2|z2 c BA B2 A2|z2 c BA B2 AG|B2 A2 G4:|

